X:1
T:Rory O'More TS.260
T:Rory O'More TS.260
T:Samuel Lover,1837 In different hand C
C:Samuel Lover,1837
C:In different hand C
L:1/8
Q:3/8=110
M:6/8
K:A
V:1 treble 
V:1
 f | eAA cAA | eAA A2 f | eAA cAA | GBB B2 c/d/ | eAA cAA | eAA !fermata!f2 (e/d/) | cde efg | %8
 aAA A2 :: !fermata!g | agf fcc | dcB A2 (A/G/) | FGA ABc | dfe !fermata!e2 f/g/ | agf fcc | %15
 dcB A2 A/G/ | FGA ABc | dfe !fermata!e2 f!D.C.! |] %18

